X: 27723
T: Morning Dew, The
R: reel
M: 4/4
K: Edorian
.~E3.B {d}BAF.B|E.BE.B {c}AG{FG}F(D|~E3).B {c}BAF.A|BGd.B {c}AG{FG}F(D|
~E3).B {d}BAE{F}E|{D}E.BE.B {c}AG{FG}FD|EzBd {c}BAF.A|BGd.B {c}ADF.A|
{Bc}B{A}Be.B f.Be.B|{Bc}B{A}Bd.B ADF.A|{c}B{A}Be(.B ~.f3).e|d{g}ed.B ADF.A|
Bze.B f.Be.B|{Bc}B{A}Bd.B ADF.A|(3Bcd e.g ~.{e}f3.e|{df}.dcd.B .ADF.(A|
B)zG.B E.FG.E|{A}E{D}EB.d ADF.A|{c}BAGF {A}EFG.A|.BGdB ADF.A|
{Bc}B{A}BG.B E.B.E{F}E|{D}E.BE.B AG{FG}F.A|{c}BAGF {A}EFG.A|B.ed.B {c}AG{FG}F(D|
.~E3).B {d}BAF.B|e.Be.B {c}AG{FG}F(D|~E3).B {d}BAF.A|BGd.B {c}AG{FG}F(D|
~E3).B {d}BAe{f}e|{d}e.f{a}ge {a}f{e}fd.f|{eg}.edB.d {c}BAF.A|BGd.B {c}ADF.A|
B)ze.B f.Be.B|{c}B{A}d.B ADF.A|{c}B{A}Be(.B ~f3).e|d{g}ed.B ADF.A|
{Bc}B{A}Be.B f.Be.B|{Bc}B{A}Bd.B ADF.A|(3Bcd e.g {e}~.f3.e|.d{g}ed.B .ADF.A|
B)zG.B .E.F.G(D|~E3).B {c}ADF.A|BAG{FG}F EFGA|.BedB ADF.A|
{c}B{A}BE.B .A.BE{F}E|{D}E.AB.G {B}AG{FG}FD|E.AB.d {c}BAF(.A|B)Gd.B {c}AG{FG}F(D||E3)||

